X: 148
Q: "In march time."
M: C
L: 1/8
K: G
(GA) | B2 B2 B2 A2 | (B3 c) d2 (cB) | A2 A2 A2 G2 |
(A3 B) c2 d2 | B2 B2 A2 A2 | G4 A4 | B2 d2 A2  (AB) | G4 z2 |]


